X:1
T:Title
%%score 1 2 3
L:1/8
Q:1/4=120
M:4/4
K:G
V:1 treble nm="Grand Piano, Track 1"
V:2 bass nm="Grand Piano, Melody"
V:3 bass nm="Grand Piano, Track 3"
V:1
 z4 d4 | d2 d2 B2 G2 | B4 B2 d2 | e2 e2 d2 d2 | d4 B2 d2 | d2 d2 B2 B2 | G4 B2 d2 | g2 g2 d2 d2 | %8
 d8 | z4 [dg]4 | e2 d2 B2 AB | d4 d4 | d3 e B2 B2 | e2 e2 d4 | B4 d4 | B2 d2 G2 G2 | A4 G2 A2 | %17
 B2 e2 d2 d2 | d8 |] %19
V:2
 z4 G,4 | G,2 D,2 G,2 B,2 | D4 E2 D2 | B,2 B,2[K:bass] G,2 A,2 | G,4 E,2 D,2 | G,2 D,2 G,2 B,2 | %6
 D4 E2 D2 | B,2 B,2 G,2 A,2 | G,8 | z4[K:treble] D4 | E2 D2 DE F2 | G3 E D4 | G3 E D2 D2 | %13
 B,2 A,2 G,4 | E,4 D,3 E, | G,2 G,2 B,2 A,B, | D4 E2 D2 | B,2 B,2 G,2 A,2 | G,8 |] %19
V:3
 z4 G,4 | G,2 G,2 E,2 E,2 | D,4 G,2 D,2 | E,2 E,2 [B,,B,]2 [D,A,]2 | G,4 [E,B,]2 [D,A,]2 | %5
 G,2 G,2 E,2 E,2 | D,4 G,2 G,2 | E,2 E,2 D,2 D,2 | [G,,G,]8 | z4 G,4 | G,2 G,2 B,2 A,2 | G,4 G,4 | %12
 G,3 G, D,2 D,2 | E,2 E,2 G,4 | [E,B,]4 [D,B,]3 [E,A,] | G,2 G,2 E,2 E,2 | D,4 E,2 D,2 | %17
 G,2 G,2 D,2 D,2 | [G,,G,]8 |] %19

